!!!!SEGMENT: Snf0103-Quinque_salutationes.krn
!!!id: Snf0103
!!!AGN: Motet
!!!voices: 4
!!!COM: Ludwig Senfl
!!!OTL: Quinque salutationes
**kern	**text	**kern	**text	**kern	**text	**kern	**text
*part4	*part4	*part3	*part3	*part2	*part2	*part1	*part1
*staff4	*staff4	*staff3	*staff3	*staff2	*staff2	*staff1	*staff1
*I"Bassus	*	*I"Tenor	*	*I"Altus	*	*I"Superius	*
*I'B	*	*I'T	*	*I'A	*	*I'S	*
*clefF4	*	*clefGv2	*	*clefGv2	*	*clefG2	*
*k[b-]	*	*k[b-]	*	*k[b-]	*	*k[b-]	*
*F:	*	*F:	*	*F:	*	*F:	*
*M2/1	*	*M2/1	*	*M2/1	*	*M2/1	*
*met(C|)	*	*met(C|)	*	*met(C|)	*	*met(C|)	*
!!section: Prima pars: Ave, Domine Jesu Christe, Rex benedicte, verbum patris
!!!OMD: Prima pars: Ave, Domine Jesu Christe, Rex benedicte, verbum patris
=1	=1	=1	=1	=1	=1	=1	=1
1F	A-	0r	.	1c	A-	0f	A-
1D	-ve,	.	.	2d	.	.	.
.	.	.	.	[2f	-ve,	.	.
=2	=2	=2	=2	=2	=2	=2	=2
1C	Do-	0c	A-	2f]	.	0g	.
.	.	.	.	4e	.	.	.
.	.	.	.	4d	.	.	.
1C	-mi-	.	.	2e	Do-	.	.
.	.	.	.	2e	-mi-	.	.
=3	=3	=3	=3	=3	=3	=3	=3
2BB-y	-ne	0d	.	1f	-ne,	0b-y	-ve,
1B-y	Je-	.	.	.	.	.	.
.	.	.	.	1r	.	.	.
4A	.	.	.	.	.	.	.
4G	.	.	.	.	.	.	.
=4	=4	=4	=4	=4	=4	=4	=4
2F	.	0f	-ve,	0F	a-	0a	.
2.D	.	.	.	.	.	.	.
4E	.	.	.	.	.	.	.
2F	.	.	.	.	.	.	.
=5	=5	=5	=5	=5	=5	=5	=5
2C	-su	0e	.	0G	.	[0g	.
2.C	Chri-	.	.	.	.	.	.
4D	.	.	.	.	.	.	.
4E	.	.	.	.	.	.	.
4F	.	.	.	.	.	.	.
=6	=6	=6	=6	=6	=6	=6	=6
1G	.	0d	.	0B-y	-ve,	0g]	.
1G	-ste,	.	.	.	.	.	.
=7	=7	=7	=7	=7	=7	=7	=7
0r	.	1e	Do-	0A	.	0a	Do-
.	.	1f	-mi-	.	.	.	.
=8	=8	=8	=8	=8	=8	=8	=8
0r	.	0g	-ne	0G	.	0b-y	-mi-
=9	=9	=9	=9	=9	=9	=9	=9
1F	Do-	0f	Je-	1A	Do-	1cc	-ne
1D	-mi-	.	.	1B-y	-mi-	1r	.
=10	=10	=10	=10	=10	=10	=10	=10
2C	-ne	0e	.	4c	-ne	0r	.
.	.	.	.	4d	.	.	.
1c	Je-	.	.	4e	.	.	.
.	.	.	.	4f	.	.	.
.	.	.	.	2g	.	.	.
2A	-su	.	.	2a	Je-	.	.
=11	=11	=11	=11	=11	=11	=11	=11
2.B-y	Chri-	0d	-su	1f	-su	0b-y	Je-
4A	.	.	.	.	.	.	.
1G	.	.	.	1g	Chri-	.	.
=12	=12	=12	=12	=12	=12	=12	=12
0F	-ste,	0f	.	0c	-ste,	0a	.
=13	=13	=13	=13	=13	=13	=13	=13
0r	.	1c	Chri-	2r	.	0g	-su
.	.	.	.	1e	Je-	.	.
.	.	1c	-ste,	.	.	.	.
.	.	.	.	4d	.	.	.
.	.	.	.	4c	.	.	.
=14	=14	=14	=14	=14	=14	=14	=14
0r	.	0r	.	2g	.	0b-y	.
.	.	.	.	2G	-su	.	.
.	.	.	.	4G	Chri-	.	.
.	.	.	.	4A	.	.	.
.	.	.	.	4B-y	.	.	.
.	.	.	.	4c	.	.	.
=15	=15	=15	=15	=15	=15	=15	=15
0B-y	Je-	1r	.	1d	.	1f	Chri-
.	.	[1f	Je-	1d	-ste,	2.f	-ste,
.	.	.	.	.	.	4g	.
=16	=16	=16	=16	=16	=16	=16	=16
0A	.	1f]	.	2r	.	0a	.
.	.	.	.	2.c	Je-	.	.
.	.	[1e	.	.	.	.	.
.	.	.	.	4d	.	.	.
.	.	.	.	4e	.	.	.
.	.	.	.	4f	.	.	.
=17	=17	=17	=17	=17	=17	=17	=17
0G	-su	1e]	.	1.g	.	1r	.
.	.	[1d	-su	.	.	1b-y	Je-
.	.	.	.	4f	.	.	.
.	.	.	.	4e	.	.	.
=18	=18	=18	=18	=18	=18	=18	=18
0B-y	.	1d]	.	2d	.	1f	-su
.	.	.	.	2f	-su	.	.
.	.	[1f	.	2d	Chri-	1b-y	Chri-
.	.	.	.	4c	.	.	.
.	.	.	.	4B-y	.	.	.
=19	=19	=19	=19	=19	=19	=19	=19
1F	Chri-	1f]	.	2d	.	0a	-ste,
.	.	.	.	2c	-ste,	.	.
1F	-ste,	1c	Chri-	2r	.	.	.
.	.	.	.	[2f	Chri-	.	.
=20	=20	=20	=20	=20	=20	=20	=20
0r	.	1c	-ste,	2f]	.	1g	Rex
.	.	.	.	2e	.	.	.
.	.	1r	.	1f	-ste,	1a	.
=21	=21	=21	=21	=21	=21	=21	=21
1r	.	0r	.	1d	Rex	2.b-y	be-
.	.	.	.	.	.	4a	-ne-
1G	Rex	.	.	1e	be-	1g	-di-
=22	=22	=22	=22	=22	=22	=22	=22
1A	be-	1r	.	2.f	-ne-	0f	-cte,
.	.	.	.	4e	.	.	.
2.B-y	-ne-	1d	Rex	2d	-di-	.	.
.	.	.	.	2f	.	.	.
4A	.	.	.	.	.	.	.
=23	=23	=23	=23	=23	=23	=23	=23
1G	-di-	1e	be-	1g	-cte,	1r	.
1F	-cte,	2.f	-ne-	2r	.	2r	.
.	.	.	.	2c	Ver-	2cc	Ver-
.	.	4e	.	.	.	.	.
=24	=24	=24	=24	=24	=24	=24	=24
1r	.	1d	-di-	1f	-bum	2dd	-bum
.	.	.	.	.	.	1ff	Pa-
1C	Ver-	2c	-cte,	1g	Pa-	.	.
.	.	2c	Ver-	.	.	2ee	.
=25	=25	=25	=25	=25	=25	=25	=25
1F	-bum	2d	-bum	1f	-tris,	1ff	-tris,
.	.	1f	Pa-	.	.	.	.
1G	Pa-	.	.	1r	.	1r	.
.	.	2e	.	.	.	.	.
=26	=26	=26	=26	=26	=26	=26	=26
1F	-tris,	1f	-tris,	2r	.	2r	.
.	.	.	.	1a	Fi-	1ff	Fi-
1r	.	1r	.	.	.	.	.
.	.	.	.	2g	-li-	2ee	-li-
=27	=27	=27	=27	=27	=27	=27	=27
2r	.	2r	.	1f	-us	2dd	-us
1A	Fi-	1c	Fi-	.	.	2cc	.
.	.	.	.	1e	.	2a	.
2G	-li-	2B-y	.	.	.	2b-y	.
=28	=28	=28	=28	=28	=28	=28	=28
1F	-us	2c	.	1f	.	1a	.
.	.	2A	-li-	.	.	.	.
1E	.	1G	-us	1r	.	1r	.
=29	=29	=29	=29	=29	=29	=29	=29
1F	.	2F	.	2r	.	2r	.
.	.	2.f	Vir-	1a	Vir-	1cc	Vir-
2r	.	.	.	.	.	.	.
.	.	4e	.	.	.	.	.
[2B-y	Vir-	4d	.	[2g	.	2b-y	.
.	.	4c	.	.	.	.	.
=30	=30	=30	=30	=30	=30	=30	=30
2B-]	.	2d	.	2g]	.	2g	.
2A	.	1c	.	1f	.	2a	.
2G	.	.	.	.	.	2b-y	.
2G	-gi-	2B-y	-gi-	2e	-gi-	2b-y	-gi-
=31	=31	=31	=31	=31	=31	=31	=31
[0F	-nis,	[0c	-nis,	0f	-nis,	1a	-nis,
.	.	.	.	.	.	1r	.
=32	=32	=32	=32	=32	=32	=32	=32
0F_	.	0c]	.	1r	.	1f	A-
.	.	.	.	1F	A-	1a	-gnus
=33	=33	=33	=33	=33	=33	=33	=33
0F]	.	0r	.	1A	-gnus	1cc	.
.	.	.	.	1c	.	2r	.
.	.	.	.	.	.	2cc	De-
=34	=34	=34	=34	=34	=34	=34	=34
0r	.	0r	.	2r	.	2a	.
.	.	.	.	2c	De-	2g	.
.	.	.	.	2A	.	2cc	.
.	.	.	.	2G	.	[2dd	.
=35	=35	=35	=35	=35	=35	=35	=35
1r	.	0r	.	1c	.	4dd]	.
.	.	.	.	.	.	4cc	.
.	.	.	.	.	.	1cc	.
1G	Sa-	.	.	1d	-i,	.	.
.	.	.	.	.	.	2bnXi	.
=36	=36	=36	=36	=36	=36	=36	=36
1C	-lus	1c	Sa-	1c	.	1cc	-i,
2D	mun-	1F	-lus	1r	.	1r	.
[2F	.	.	.	.	.	.	.
=37	=37	=37	=37	=37	=37	=37	=37
2F]	.	1G	mun-	1g	Sa-	1r	.
2E	.	.	.	.	.	.	.
2.F	.	1A	.	1c	-lus	1cc	Sa-
4E	.	.	.	.	.	.	.
=38	=38	=38	=38	=38	=38	=38	=38
1D	.	2B-y	.	2d	mun-	1f	-lus
.	.	2F	.	1f	.	.	.
1C	.	[1c	.	.	.	1g	mun-
.	.	.	.	2e	.	.	.
=39	=39	=39	=39	=39	=39	=39	=39
2F	.	1c]	.	1f	-di,	2a	.
2A	.	.	.	.	.	1cc	.
1G	.	1d	.	1r	.	.	.
.	.	.	.	.	.	2bnXi	.
=40	=40	=40	=40	=40	=40	=40	=40
1F	-di,	[0A	-di,	1c	Ho-	[0cc	-di,
1r	.	.	.	1e	-sti-	.	.
=41	=41	=41	=41	=41	=41	=41	=41
1F	Ho-	1A]	.	1f	-a	0cc]	.
1A	-sti-	1r	.	1e	sa-	.	.
=42	=42	=42	=42	=42	=42	=42	=42
1B-y	-a	0r	.	1d	-cra,	1f	Ho-
1A	sa-	.	.	2e	.	1a	-sti-
.	.	.	.	2f	.	.	.
=43	=43	=43	=43	=43	=43	=43	=43
1G	-cra,	1r	.	1g	.	1b-y	-a
1r	.	1d	Ver-	4f	.	1a	sa-
.	.	.	.	4e	.	.	.
.	.	.	.	4d	.	.	.
.	.	.	.	4c	.	.	.
=44	=44	=44	=44	=44	=44	=44	=44
1G	Ver-	1g	.	1B-y	.	0g	-cra,
1c	.	1e	.	1r	.	.	.
=45	=45	=45	=45	=45	=45	=45	=45
1A	.	1f	.	0r	.	0r	.
1B-y	.	[1g	-bum,	.	.	.	.
=46	=46	=46	=46	=46	=46	=46	=46
0c	-bum,	0g]	.	1r	.	1g	Ver-
.	.	.	.	1c	Ver-	1cc	.
=47	=47	=47	=47	=47	=47	=47	=47
0r	.	1r	.	1f	.	1a	.
.	.	1G	Ver-	1d	.	1b-y	.
=48	=48	=48	=48	=48	=48	=48	=48
1C	Ver-	1c	.	1e	.	0cc	-bum
1F	.	1A	.	[1f	-bum	.	.
=49	=49	=49	=49	=49	=49	=49	=49
1D	.	1B-y	.	1f]	.	1r	.
1E	.	1c	-bum	1r	.	2r	.
.	.	.	.	.	.	2cc	ca-
=50	=50	=50	=50	=50	=50	=50	=50
1F	-bum	1c	ca-	0r	.	2.cc	-ro
.	.	.	.	.	.	4dd	.
1r	.	2.c	-ro	.	.	4ee	.
.	.	.	.	.	.	4cc	.
.	.	.	.	.	.	[2ee	fa-
.	.	4d	.	.	.	.	.
=51	=51	=51	=51	=51	=51	=51	=51
0r	.	2e	.	1r	.	4ee]	.
.	.	.	.	.	.	4dd	.
.	.	2f	.	.	.	1cc	.
.	.	1d	fa-	2r	.	.	.
.	.	.	.	2f	ca-	2bnXi	.
=52	=52	=52	=52	=52	=52	=52	=52
1F	ca-	0c	-ctum,	2.f	-ro	0cc	-ctum,
.	.	.	.	4g	.	.	.
2.F	-ro	.	.	4a	.	.	.
.	.	.	.	4f	.	.	.
.	.	.	.	[2a	fa-	.	.
4G	.	.	.	.	.	.	.
=53	=53	=53	=53	=53	=53	=53	=53
2A	.	0r	.	4a]	.	1r	.
.	.	.	.	4g	.	.	.
2B-y	.	.	.	1f	.	.	.
1G	fa-	.	.	.	.	1b-y	Fons
.	.	.	.	2e	.	.	.
=54	=54	=54	=54	=54	=54	=54	=54
1F	-ctum,	1f	Fons	2f	-ctum,	1a	pi-
.	.	.	.	2c	Fons	.	.
1r	.	1e	pi-	2c	pi-	1g	-e-
.	.	.	.	2c	-e-	.	.
=55	=55	=55	=55	=55	=55	=55	=55
0r	.	1d	-e-	2f	-ta-	1a	-ta-
.	.	.	.	2d	.	.	.
.	.	1e	-ta-	1A	-tis,	1a	-tis,
=56	=56	=56	=56	=56	=56	=56	=56
1r	.	1e	-tis,	2r	.	2r	.
.	.	.	.	2e	Fons	2cc	Fons
1B-y	Fons	2r	.	2f	.	1dd	pi-
.	.	2d	Fons	2g	.	.	.
=57	=57	=57	=57	=57	=57	=57	=57
1A	pi-	2e	pi-	2a	pi-	2cc	-e-
.	.	2c	-e-	2f	-e-	1cc	-ta-
1G	-e-	1d	-ta-	1g	-ta-	.	.
.	.	.	.	.	.	2bnXi	.
=58	=58	=58	=58	=58	=58	=58	=58
[0Al	-ta-	[0cl	-tis.	2e	.	[0ccl	-tis.
.	.	.	.	1a	.	.	.
.	.	.	.	4g	.	.	.
.	.	.	.	4f	.	.	.
=59	=59	=59	=59	=59	=59	=59	=59
00A]	-tis.	00c]	.	00e	-tis.	00cc]	.
=60||	=60||	=60||	=60||	=60||	=60||	=60||	=60||
*M2/1	*	*M2/1	*	*M2/1	*	*M2/1	*
*met(C|)	*	*met(C|)	*	*met(C|)	*	*met(C|)	*
!!section: Secunda pars: Ave, Domine Jesu Christe, Rex benedicte, laus angelorum
!!!OMD: Secunda pars: Ave, Domine Jesu Christe, Rex benedicte, laus angelorum
0r	.	0r	.	1c	A-	0r	.
.	.	.	.	1d	.	.	.
=61	=61	=61	=61	=61	=61	=61	=61
1F	A-	0r	.	1f	-ve,	0r	.
1G	.	.	.	1e	.	.	.
=62	=62	=62	=62	=62	=62	=62	=62
1B-y	-ve,	1r	.	1d	.	0r	.
1A	.	1c	A-	2e	Do-	.	.
.	.	.	.	2f	-mi-	.	.
=63	=63	=63	=63	=63	=63	=63	=63
1G	.	1d	.	1g	-ne	0r	.
2A	Do-	1f	-ve,	2c	.	.	.
2B-y	-mi-	.	.	2d	Je-	.	.
=64	=64	=64	=64	=64	=64	=64	=64
1c	-ne	1e	.	4e	-su	0r	.
.	.	.	.	4f	.	.	.
.	.	.	.	4g	.	.	.
.	.	.	.	4e	.	.	.
1B-y	Je-	1d	.	2f	.	.	.
.	.	.	.	2g	Chri-	.	.
=65	=65	=65	=65	=65	=65	=65	=65
1A	.	2e	Do-	1c	-ste,	0r	.
.	.	2f	-mi-	.	.	.	.
1G	-su	1g	-ne	2r	.	.	.
.	.	.	.	[2d	Je-	.	.
=66	=66	=66	=66	=66	=66	=66	=66
1B-y	.	1f	Je-	2d]	.	1r	.
.	.	.	.	2d	-su	.	.
1r	.	1e	.	2c	Chri-	1cc	Je-
.	.	.	.	2A	.	.	.
=67	=67	=67	=67	=67	=67	=67	=67
1r	.	1d	-su	2.B-y	.	1b-y	.
.	.	.	.	4c	.	.	.
1F	Chri-	1f	.	4d	.	1a	-su
.	.	.	.	4A	.	.	.
.	.	.	.	[2a	.	.	.
=68	=68	=68	=68	=68	=68	=68	=68
1F	-ste,	1c	Chri-	2a]	.	1cc	.
.	.	.	.	4g	.	.	.
.	.	.	.	4f	.	.	.
1r	.	1c	-ste,	1e	.	1g	Chri-
=69	=69	=69	=69	=69	=69	=69	=69
1G	Rex	0r	.	2d	-ste,	1g	-ste,
.	.	.	.	2g	Rex	.	.
1A	be-	.	.	2f	be-	1r	.
.	.	.	.	2e	-ne-	.	.
=70	=70	=70	=70	=70	=70	=70	=70
2B-y	-ne-	0r	.	2d	-di-	1r	.
2A	.	.	.	1f	.	.	.
1G	-di-	.	.	.	.	1g	Rex
.	.	.	.	2e	.	.	.
=71	=71	=71	=71	=71	=71	=71	=71
1F	-cte,	1c	Rex	1f	-cte,	1a	.
1r	.	2d	be-	1r	.	2b-y	be-
.	.	2f	-ne-	.	.	2a	-ne-
=72	=72	=72	=72	=72	=72	=72	=72
1r	.	4e	-di-	1c	Rex	1g	-di-
.	.	4d	.	.	.	.	.
.	.	4c	.	.	.	.	.
.	.	4B-y	.	.	.	.	.
1D	Rex	1A	.	2d	be-	1f	-cte,
.	.	.	.	2f	-ne-	.	.
=73	=73	=73	=73	=73	=73	=73	=73
1E	be-	1G	-cte,	4e	-di-	1r	.
.	.	.	.	4d	.	.	.
.	.	.	.	4c	.	.	.
.	.	.	.	4B-y	.	.	.
2F	-ne-	1r	.	2A	.	1cc	Rex
2E	.	.	.	[2c	.	.	.
=74	=74	=74	=74	=74	=74	=74	=74
1D	-di-	1d	Rex	2c]	.	2dd	be-
.	.	.	.	2BnXi	.	2ff	-ne-
1C	-cte,	1e	be-	1c	-cte,	4ee	-di-
.	.	.	.	.	.	4dd	.
.	.	.	.	.	.	4cc	.
.	.	.	.	.	.	4b-y	.
=75	=75	=75	=75	=75	=75	=75	=75
2r	.	2f	.	2r	.	2a	.
2E	be-	2e	-ne-	2g	be-	1cc	.
2F	-ne-	1d	-di-	2f	-ne-	.	.
2G	-di-	.	.	2d	.	2bnXi	.
=76	=76	=76	=76	=76	=76	=76	=76
2C	-cte,	1c	-cte,	2.e	-di-	2cc	-cte,
2A	be-	.	.	.	.	2cc	Laus
.	.	.	.	4a	.	.	.
2B-y	-ne-	2r	.	2g	.	2b-y	An-
2c	-di-	2e	Laus	2e	-cte,	2g	-ge-
=77	=77	=77	=77	=77	=77	=77	=77
2F	-cte,	2d	An-	2f	be-	2a	-lo-
2E	be-	2e	-ge-	2g	-ne-	1cc	.
2F	-ne-	1d	-lo-	2f	-di-	.	.
2G	-di-	.	.	2d	.	2bnXi	.
=78	=78	=78	=78	=78	=78	=78	=78
2C	-cte,	1c	.	2.e	.	1cc	-rum,
2A	Laus	.	.	.	.	.	.
.	.	.	.	4f	.	.	.
2G	An-	2d	.	2g	.	2r	.
2A	-ge-	[2f	.	2c	.	2cc	Laus
=79	=79	=79	=79	=79	=79	=79	=79
1G	-lo-	2f]	.	1g	-cte,	2b-y	An-
.	.	2e	.	.	.	2g	-ge-
1F	-rum,	1f	-rum,	2r	.	2a	-lo-
.	.	.	.	2a	Laus	2cc	.
=80	=80	=80	=80	=80	=80	=80	=80
1r	.	1r	.	2g	An-	2dd	.
.	.	.	.	2a	-ge-	1ff	.
1C	Glo-	1e	Glo-	1g	-lo-	.	.
.	.	.	.	.	.	2ee	.
=81	=81	=81	=81	=81	=81	=81	=81
1D	.	1d	-ri-	1f	-rum,	0ff	-rum,
[1F	.	1c	.	1r	.	.	.
=82	=82	=82	=82	=82	=82	=82	=82
2F]	.	0c	-a,	0a	Glo-	1r	.
2F	-ri-	.	.	.	.	.	.
1F	-a,	.	.	.	.	1cc	Glo-
=83	=83	=83	=83	=83	=83	=83	=83
0r	.	0r	.	1g	-ri-	1dd	.
.	.	.	.	1f	.	[1ff	.
=84	=84	=84	=84	=84	=84	=84	=84
0D	Glo-	1r	.	0f	-a,	2ff]	.
.	.	.	.	.	.	2ff	-ri-
.	.	1F	Glo-	.	.	1ff	-a,
=85	=85	=85	=85	=85	=85	=85	=85
1C	-ri-	1G	.	0r	.	0r	.
1BB-y	.	[1B-y	.	.	.	.	.
=86	=86	=86	=86	=86	=86	=86	=86
0BB-y	-a	2B-]	.	0d	Glo-	1r	.
.	.	2B-y	-ri-	.	.	.	.
.	.	1B-y	-a	.	.	1f	Glo-
=87	=87	=87	=87	=87	=87	=87	=87
0r	.	0r	.	1c	-ri-	1g	.
.	.	.	.	1B-y	.	[1b-y	.
=88	=88	=88	=88	=88	=88	=88	=88
1r	.	1r	.	1B-y	-a	2b-]	.
.	.	.	.	.	.	2b-y	-ri-
1B-y	San-	1d	San-	1f	San-	1b-y	-a
=89	=89	=89	=89	=89	=89	=89	=89
1A	-cto-	2e	-cto-	1a	-cto-	1cc	San-
.	.	2f	.	.	.	.	.
1G	.	2.g	.	1d	.	2.b-y	-cto-
.	.	8fL	.	.	.	4a	.
.	.	8eJ	.	.	.	.	.
=90	=90	=90	=90	=90	=90	=90	=90
0G	-rum,	2d	.	0g	.	2b-y	.
.	.	2e	.	.	.	1cc	.
.	.	1d	.	.	.	.	.
.	.	.	.	.	.	2bnXi	.
=91	=91	=91	=91	=91	=91	=91	=91
[0A	.	0c	-rum,	0e	-rum,	[0cc	-rum,
=92	=92	=92	=92	=92	=92	=92	=92
0A]	.	1r	.	[0a	.	1cc]	.
.	.	1e	Vi-	.	.	2r	.
.	.	.	.	.	.	2cc	Vi-
=93	=93	=93	=93	=93	=93	=93	=93
0r	.	2d	-si-	1a]	.	2dd	-si-
.	.	2c	-o	.	.	2ee	-o
.	.	1d	pa-	2r	.	1ff	pa-
.	.	.	.	[2a	Vi-	.	.
=94	=94	=94	=94	=94	=94	=94	=94
1r	.	1A	-cis	2a]	.	1cc	-cis,
.	.	.	.	2a	-si-	.	.
1A	Vi-	1r	.	2.e	-o	2r	.
.	.	.	.	.	.	2cc	Vi-
.	.	.	.	4f	.	.	.
=95	=95	=95	=95	=95	=95	=95	=95
2G	-si-	1r	.	2g	.	2b-y	-si-
2F	-o	.	.	1a	.	2a	-o
1G	pa-	1d	De-	.	.	1b-y	pa-
.	.	.	.	2g	pa-	.	.
=96	=96	=96	=96	=96	=96	=96	=96
1D	-cis,	1f	-i-	2a	.	1a	-cis,
.	.	.	.	2f	.	.	.
1r	.	1c	-tas	[1e	.	2r	.
.	.	.	.	.	.	[2g	De-
=97	=97	=97	=97	=97	=97	=97	=97
1r	.	1c	in-	2e]	.	2g]	.
.	.	.	.	4d	.	2e	-i-
.	.	.	.	4c	.	.	.
1D	De-	1B-y	-te-	1d	.	1f	-tas
=98	=98	=98	=98	=98	=98	=98	=98
1F	-i-	2.A	-gra,	2c	.	2a	in-
.	.	.	.	2f	.	2a	-te-
.	.	4B-y	.	.	.	.	.
1C	-tas	2.c	.	1e	-cis,	1g	-gra,
.	.	8B-yL	.	.	.	.	.
.	.	8AJ	.	.	.	.	.
=99	=99	=99	=99	=99	=99	=99	=99
1C	in-	2G	.	1r	.	2r	.
.	.	1A	.	.	.	2cc	De-
1BB-y	-te-	.	.	1d	De-	2dd	.
.	.	2G	.	.	.	2dd	-i-
=100	=100	=100	=100	=100	=100	=100	=100
1AA	-gra,	1A	.	1f	-i-	2cc	-tas
.	.	.	.	.	.	2a	in-
2r	.	1r	.	1c	-tas	2g	.
2A	De-	.	.	.	.	[2cc	-te-
=101	=101	=101	=101	=101	=101	=101	=101
2F	-i-	1f	ve-	1c	in-	4cc]	.
.	.	.	.	.	.	4b-y	.
2F	-tas	.	.	.	.	1a	.
2G	in-	1d	-rus	1B-y	-te-	.	.
2G	-te-	.	.	.	.	2g	.
=102	=102	=102	=102	=102	=102	=102	=102
2F	-gra	1f	ho-	2A	-gra,	2a	-gra,
2F	ve-	.	.	2A	ve-	2a	ve-
2C	-rus	2e	.	2c	-rus	4g	-rus
.	.	.	.	.	.	4a	.
[2G	ho-	[2d	.	[2B-y	ho-	4b-y	.
.	.	.	.	.	.	4cc	.
=103	=103	=103	=103	=103	=103	=103	=103
4G]	.	2d]	.	4B-]	.	2dd	.
4F	.	.	.	4A	.	.	.
2E	.	1c	.	1G	.	2ee	.
1D	.	.	.	.	.	1ff	ho-
.	.	2B-y	.	2F	.	.	.
=104	=104	=104	=104	=104	=104	=104	=104
0C	-mo,	[0c	-mo,	2G	-mo,	0ee	-mo,
.	.	.	.	1g	ve-	.	.
.	.	.	.	2e	-rus	.	.
=105	=105	=105	=105	=105	=105	=105	=105
0F	.	0c]	.	2a	ho-	1r	.
.	.	.	.	2A	-mo,	.	.
.	.	.	.	2r	.	[1a	flos
.	.	.	.	[2c	flos	.	.
=106	=106	=106	=106	=106	=106	=106	=106
0r	.	0r	.	2c]	.	1a]	.
.	.	.	.	2A	et	.	.
.	.	.	.	1d	fru-	1b-y	et
=107	=107	=107	=107	=107	=107	=107	=107
1r	.	1r	.	2.c	-ctus,	1cc	fru-
.	.	.	.	4d	.	.	.
2r	.	[1A	flos	2e	.	1cc	-ctus
[2F	flos	.	.	[2f	.	.	.
=108	=108	=108	=108	=108	=108	=108	=108
2F]	.	1A]	.	4f]	.	2r	.
.	.	.	.	4g	.	.	.
2D	et	.	.	2a	.	1f	Vir-
1G	fru-	1B-y	et	1g	.	.	.
.	.	.	.	.	.	2e	.
=109	=109	=109	=109	=109	=109	=109	=109
2F	-ctus	1c	fru-	2r	.	2f	-gi-
1F	Vir-	.	.	1a	Vir-	2.cc	-nis,
.	.	1c	-ctus	.	.	.	.
.	.	.	.	.	.	4dd	.
2E	-gi-	.	.	2g	-gi-	2ee	.
=110	=110	=110	=110	=110	=110	=110	=110
1D	-nis,	2r	.	1f	-nis	0a	.
.	.	1d	Vir-	.	.	.	.
1r	.	.	.	1e	.	.	.
.	.	2c	-gi-	.	.	.	.
=111	=111	=111	=111	=111	=111	=111	=111
1r	.	1B-y	-nis,	[0f	.	2r	.
.	.	.	.	.	.	1dd	Vir-
1F	Vir-	1A	.	.	.	.	.
.	.	.	.	.	.	2cc	-gi-
=112	=112	=112	=112	=112	=112	=112	=112
1BB-y	-gi-	2B-y	.	0f]	.	1b-y	-nis
.	.	1d	Vir-	.	.	.	.
1F	-nis	.	.	.	.	1a	.
.	.	2c	-gi-	.	.	.	.
=113	=113	=113	=113	=113	=113	=113	=113
2.BB-y	Ma-	1B-y	-nis	[0d	Ma-	2b-y	.
.	.	.	.	.	.	2.f	Ma-
4C	.	.	.	.	.	.	.
1D	.	1A	.	.	.	.	.
.	.	.	.	.	.	4g	.
.	.	.	.	.	.	2a	.
=114	=114	=114	=114	=114	=114	=114	=114
1BB-y	-tris,	1B-y	.	1d]	.	2g	.
.	.	.	.	.	.	1f	.
1C	.	1G	Ma-	[1c	.	.	.
.	.	.	.	.	.	2e	.
=115	=115	=115	=115	=115	=115	=115	=115
1r	.	1F	.	0c]	.	2f	.
.	.	.	.	.	.	2.cc	.
1F	Ma-	2.A	-tris	.	.	.	.
.	.	.	.	.	.	4b-y	.
.	.	.	.	.	.	2a	.
.	.	4B-y	.	.	.	.	.
=116	=116	=116	=116	=116	=116	=116	=116
[0C	-tris,	0c	.	[0e	-tris,	2.g	.
.	.	.	.	.	.	4a	.
.	.	.	.	.	.	2g	.
.	.	.	.	.	.	[2a	.
=117	=117	=117	=117	=117	=117	=117	=117
0C]	.	1r	.	0e]	.	2a]	.
.	.	.	.	.	.	4g	.
.	.	.	.	.	.	4f	.
.	.	1G	Ma-	.	.	1g	.
=118	=118	=118	=118	=118	=118	=118	=118
2r	.	1F	.	0f	.	1a	-tris,
2c	Ma-	.	.	.	.	.	.
2F	.	1A	-tris.	.	.	2r	.
2A	.	.	.	.	.	2cc	Ma-
=119	=119	=119	=119	=119	=119	=119	=119
[0G	-tris,	[0B-y	.	0g	.	2b-y	.
.	.	.	.	.	.	2.dd	.
.	.	.	.	.	.	4cc	.
.	.	.	.	.	.	4b-y	.
.	.	.	.	.	.	4a	.
=120	=120	=120	=120	=120	=120	=120	=120
0G]	.	0B-]	.	1r	.	2g	.
.	.	.	.	.	.	2.b-y	-tris,
.	.	.	.	1d	Ma-	.	.
.	.	.	.	.	.	4a	.
.	.	.	.	.	.	4g	.
.	.	.	.	.	.	4f	.
=121	=121	=121	=121	=121	=121	=121	=121
1A	Ma-	[0cl	.	1c	.	2e	.
.	.	.	.	.	.	2a	Ma-
2.A	-tris.	.	.	1e	-tris.	2.cc	-tris.
4G	.	.	.	.	.	4b-y	.
=122	=122	=122	=122	=122	=122	=122	=122
4F	.	0c_	.	0f	.	4a	.
4E	.	.	.	.	.	4g	.
1F	.	.	.	.	.	1a	.
4E	.	.	.	.	.	4g	.
4D	.	.	.	.	.	4f	.
=123	=123	=123	=123	=123	=123	=123	=123
00C	.	00c]	.	00g	.	00e	.
=124||	=124||	=124||	=124||	=124||	=124||	=124||	=124||
*M2/1	*	*M2/1	*	*M2/1	*	*M2/1	*
*met(C|)	*	*met(C|)	*	*met(C|)	*	*met(C|)	*
!!section: Tertia pars: Ave, Domine Jesu Christe, Rex benedicte, lumen caeli
!!!OMD: Tertia pars: Ave, Domine Jesu Christe, Rex benedicte, lumen caeli
1C	A-	0r	.	0r	.	0r	.
1D	.	.	.	.	.	.	.
=125	=125	=125	=125	=125	=125	=125	=125
1F	-ve,	1F	A-	1r	.	0r	.
1E	.	1G	.	1c	A-	.	.
=126	=126	=126	=126	=126	=126	=126	=126
0D	.	1B-y	-ve,	1d	.	1r	.
.	.	1A	.	1f	-ve,	1f	A-
=127	=127	=127	=127	=127	=127	=127	=127
2.E	Do-	1G	.	1e	.	1g	.
4F	-mi-	.	.	.	.	.	.
1G	-ne	1r	.	1d	.	1b-y	-ve,
=128	=128	=128	=128	=128	=128	=128	=128
0r	.	2.A	Do-	1r	.	1a	.
.	.	4B-y	-mi-	.	.	.	.
.	.	1c	-ne	1e	Do-	1g	.
=129	=129	=129	=129	=129	=129	=129	=129
0r	.	0r	.	1f	-mi-	1a	Do-
.	.	.	.	1g	-ne	1b-y	-mi-
=130	=130	=130	=130	=130	=130	=130	=130
1A	Je-	0r	.	2e	Je-	1cc	-ne
.	.	.	.	1f	-su	.	.
1B-y	-su	.	.	.	.	1r	.
.	.	.	.	[2g	.	.	.
=131	=131	=131	=131	=131	=131	=131	=131
1c	Chri-	1e	Je-	2g]	.	1r	.
.	.	.	.	1c	Chri-	.	.
1F	-ste,	1f	-su	.	.	1a	Je-
.	.	.	.	4B-y	.	.	.
.	.	.	.	4A	.	.	.
=132	=132	=132	=132	=132	=132	=132	=132
0r	.	1g	Chri-	2.G	.	1b-y	-su
.	.	.	.	4B-y	.	.	.
.	.	1c	-ste,	1A	.	1cc	Chri-
=133	=133	=133	=133	=133	=133	=133	=133
1B-y	Rex	1r	.	[0d	-ste,	1f	-ste,
1B-y	be-	1f	Rex	.	.	1r	.
=134	=134	=134	=134	=134	=134	=134	=134
1B-y	-ne-	1f	be-	1d]	.	0r	.
1A	.	1f	-ne-	1r	.	.	.
=135	=135	=135	=135	=135	=135	=135	=135
[0G	.	1e	.	0r	.	0r	.
.	.	1d	.	.	.	.	.
=136	=136	=136	=136	=136	=136	=136	=136
1G]	.	1e	.	0r	.	0r	.
1A	.	1c	.	.	.	.	.
=137	=137	=137	=137	=137	=137	=137	=137
2.F	-di-	1.c	-di-	0r	.	1r	.
4G	.	.	.	.	.	.	.
2A	.	.	.	.	.	2r	.
2B-y	.	2d	.	.	.	[2g	Rex
=138	=138	=138	=138	=138	=138	=138	=138
2c	.	2e	.	2r	.	2g]	.
2A	.	1f	.	2c	Rex	2a	be-
1G	.	.	.	2d	.	1b-y	-ne-
.	.	2e	.	2B-y	be-	.	.
=139	=139	=139	=139	=139	=139	=139	=139
1F	-cte,	1f	-cte,	2c	-ne-	1a	.
.	.	.	.	1f	-di-	.	.
1r	.	1c	Lu-	.	.	1g	-di-
.	.	.	.	2e	.	.	.
=140	=140	=140	=140	=140	=140	=140	=140
1F	Lu-	1c	-men	1f	-cte,	0f	-cte,
1F	-men	1d	cae-	1r	.	.	.
=141	=141	=141	=141	=141	=141	=141	=141
1G	cae-	1e	.	0r	.	0r	.
1A	.	[1e	-li,	.	.	.	.
=142	=142	=142	=142	=142	=142	=142	=142
1A	-li,	1e]	.	1r	.	1cc	Lu-
1r	.	1r	.	1f	Lu-	1cc	-men
=143	=143	=143	=143	=143	=143	=143	=143
0r	.	0r	.	1f	-men	1dd	cae-
.	.	.	.	1g	cae-	1ee	.
=144	=144	=144	=144	=144	=144	=144	=144
1r	.	1r	.	1a	.	1ee	-li,
1F	Pre-	1f	Pre-	1a	-li,	1r	.
=145	=145	=145	=145	=145	=145	=145	=145
1A	-ti-	2c	-ti-	0r	.	0r	.
.	.	1f	-um	.	.	.	.
1A	-um,	.	.	.	.	.	.
.	.	2e	.	.	.	.	.
=146	=146	=146	=146	=146	=146	=146	=146
1D	.	2d	.	1f	Pre-	1ff	Pre-
.	.	4c	.	.	.	.	.
.	.	4B-y	.	.	.	.	.
1r	.	1A	.	1a	-ti-	2cc	-ti-
.	.	.	.	.	.	[2ff	-um
=147	=147	=147	=147	=147	=147	=147	=147
0r	.	1r	.	1a	-um	2ff]	.
.	.	.	.	.	.	2ee	.
.	.	1B-y	Pre-	2.d	.	2.dd	.
.	.	.	.	4e	.	8ccL	.
.	.	.	.	.	.	8b-yJ	.
=148	=148	=148	=148	=148	=148	=148	=148
0r	.	1d	-ti-	2f	.	2a	.
.	.	.	.	1g	.	2b-y	.
.	.	1d	-um	.	.	1a	.
.	.	.	.	2f	.	.	.
=149	=149	=149	=149	=149	=149	=149	=149
1E	Pre-	1G	.	2.g	.	2.g	.
.	.	.	.	8fL	.	4a	.
.	.	.	.	8eJ	.	.	.
1G	-ti-	1r	.	2d	.	2b-y	.
.	.	.	.	2e	.	[2cc	.
=150	=150	=150	=150	=150	=150	=150	=150
1G	-um	0r	.	1d	.	2cc]	.
.	.	.	.	.	.	2bnXi	.
1C	.	.	.	2.c	mun-	2.cc	mun-
.	.	.	.	4d	.	8b-yL	.
.	.	.	.	.	.	8aJ	.
=151	=151	=151	=151	=151	=151	=151	=151
0r	.	1c	mun-	2e	.	2g	.
.	.	.	.	1f	.	2a	.
.	.	1c	-di,	.	.	1g	-di,
.	.	.	.	2e	.	.	.
=152	=152	=152	=152	=152	=152	=152	=152
1F	mun-	1r	.	0f	-di	2r	.
.	.	.	.	.	.	2.a	Gau-
1F	-di,	1c	Gau-	.	.	.	.
.	.	.	.	.	.	4b-y	.
.	.	.	.	.	.	2cc	.
=153	=153	=153	=153	=153	=153	=153	=153
1r	.	1d	-di-	2r	.	2f	.
.	.	.	.	2.f	Gau-	2b-y	-di-
1F	Gau-	1f	-um	.	.	2a	-um
.	.	.	.	4g	.	.	.
.	.	.	.	2a	.	2cc	.
=154	=154	=154	=154	=154	=154	=154	=154
1G	-di-	1r	.	2d	.	2.b-y	.
.	.	.	.	2g	-di-	.	.
.	.	.	.	.	.	4cc	.
1B-y	-um	2r	.	2f	-um	1dd	.
.	.	2f	no-	2B-y	no-	.	.
=155	=155	=155	=155	=155	=155	=155	=155
1r	.	2.e	.	2c	.	2g	no-
.	.	.	.	2A	.	1cc	.
.	.	8dL	.	.	.	.	.
.	.	8cJ	.	.	.	.	.
2r	.	1d	.	2G	.	.	.
2B-y	no-	.	.	2d	.	2b-y	.
=156	=156	=156	=156	=156	=156	=156	=156
2.A	.	1c	-strum,	2e	.	2.cc	.
.	.	.	.	1f	.	.	.
8GL	.	.	.	.	.	8b-yL	.
8FJ	.	.	.	.	.	8aJ	.
1G	.	1r	.	.	.	1b-y	.
.	.	.	.	2e	.	.	.
=157	=157	=157	=157	=157	=157	=157	=157
1F	-strum,	1c	Pa-	1f	-strum,	2a	.
.	.	.	.	.	.	1a	.
1G	Pa-	1B-y	-nis	2.d	Pa-	.	.
.	.	.	.	.	.	2g	.
.	.	.	.	4e	.	.	.
=158	=158	=158	=158	=158	=158	=158	=158
1F	-nis	2r	.	2f	.	1a	-strum,
.	.	2A	An-	2c	-nis	.	.
2r	.	1B-y	-ge-	2d	An-	1r	.
2E	An-	.	.	2G	-ge-	.	.
=159	=159	=159	=159	=159	=159	=159	=159
2F	-ge-	2A	.	1c	-lo-	0r	.
2E	.	2.G	-lo-	.	.	.	.
1D	-lo-	.	.	4B-y	.	.	.
.	.	4F	.	4A	.	.	.
.	.	[2F	.	4G	.	.	.
.	.	.	.	4F	.	.	.
=160	=160	=160	=160	=160	=160	=160	=160
1C	.	2F]	.	1G	-rum,	1r	.
.	.	2E	.	.	.	.	.
2F	-rum,	2F	-rum,	1r	.	1cc	Pa-
2A	Pa-	2c	Pa-	.	.	.	.
=161	=161	=161	=161	=161	=161	=161	=161
2G	.	2d	-nis	1g	Pa-	1b-y	-nis
1B-y	-nis	1d	An-	.	.	.	.
.	.	.	.	1f	-nis	2r	.
2F	An-	[2c	-ge-	.	.	2a	An-
=162	=162	=162	=162	=162	=162	=162	=162
1G	-ge-	2c]	.	2r	.	1b-y	.
.	.	2B-y	-lo-	2e	An-	.	.
2F	-lo-	1c	.	2f	-ge-	2a	-ge-
2C	.	.	.	2e	-lo-	[2g	-lo-
=163	=163	=163	=163	=163	=163	=163	=163
2D	.	2A	.	1d	.	4g]	.
.	.	.	.	.	.	4f	.
2BB-y	.	2B-y	.	.	.	1f	.
1C	.	1G	.	1c	.	.	.
.	.	.	.	.	.	2e	.
=164	=164	=164	=164	=164	=164	=164	=164
1F	-rum,	0F	-rum,	1c	-rum,	1f	-rum,
1r	.	.	.	2r	.	2r	.
.	.	.	.	[2f	cor-	[2a	cor-
=165	=165	=165	=165	=165	=165	=165	=165
0r	.	0r	.	2f]	.	2a]	.
.	.	.	.	2d	-dis	2f	-dis
.	.	.	.	2f	iu-	2a	iu-
.	.	.	.	2d	-bi-	2b-y	-bi-
=166	=166	=166	=166	=166	=166	=166	=166
2r	.	2r	.	1c	-lus,	1cc	-lus,
1F	cor-	1A	cor-	.	.	.	.
.	.	.	.	1r	.	1r	.
2D	-dis	2F	-dis	.	.	.	.
=167	=167	=167	=167	=167	=167	=167	=167
2F	iu-	2A	iu-	1r	.	0r	.
2D	-bi-	2B-y	-bi-	.	.	.	.
2C	-lus,	1c	-lus,	2r	.	.	.
[2c	cor-	.	.	[2e	cor-	.	.
=168	=168	=168	=168	=168	=168	=168	=168
2c]	.	0r	.	2e]	.	0r	.
2A	-dis	.	.	2c	-dis	.	.
2c	iu-	.	.	2e	iu-	.	.
2A	-bi-	.	.	2f	-bi-	.	.
=169	=169	=169	=169	=169	=169	=169	=169
2G	-lus,	0r	.	1g	-lus,	1g	Rex
1G	Rex	.	.	.	.	.	.
.	.	.	.	1d	Rex	1a	et
2F	et	.	.	.	.	.	.
=170	=170	=170	=170	=170	=170	=170	=170
2E	Spon-	0r	.	1e	et	1g	Spon-
2C	.	.	.	.	.	.	.
1G	.	.	.	1d	Spon-	1g	-sus
=171	=171	=171	=171	=171	=171	=171	=171
1D	-sus,	1d	Rex	1d	-sus,	1f	.
1r	.	1e	et	1c	.	2.g	.
.	.	.	.	.	.	4a	.
=172	=172	=172	=172	=172	=172	=172	=172
1r	.	1d	Spon-	1r	.	2b-y	.
.	.	.	.	.	.	1cc	.
1G	Rex	1d	-sus	1g	Spon-	.	.
.	.	.	.	.	.	2bnXi	.
=173	=173	=173	=173	=173	=173	=173	=173
1A	et	2.c	.	1e	-sus,	1cc	.
.	.	4d	.	.	.	.	.
1G	Spon-	2e	.	1r	.	1r	.
.	.	[2f	.	.	.	.	.
=174	=174	=174	=174	=174	=174	=174	=174
1G	-sus	2f]	.	1g	Rex	1r	.
.	.	2e	.	.	.	.	.
1F	.	1f	.	1a	et	2r	.
.	.	.	.	.	.	2cc	vir-
=175	=175	=175	=175	=175	=175	=175	=175
0r	.	1r	.	1g	Spon-	1dd	-gi-
.	.	2r	.	1g	-sus	1ee	-ni-
.	.	2c	vir-	.	.	.	.
=176	=176	=176	=176	=176	=176	=176	=176
2r	.	2.d	-gi-	1f	.	1ff	-ta-
1B-y	vir-	.	.	.	.	.	.
.	.	4e	.	.	.	.	.
.	.	4f	.	1r	.	2dd	.
.	.	4g	.	.	.	.	.
2c	-gi-	2e	.	.	.	2ee	.
=177	=177	=177	=177	=177	=177	=177	=177
2A	-ni-	1f	.	2r	.	2cc	.
1B-y	-ta-	.	.	1f	vir-	1dd	.
.	.	2d	-ni-	.	.	.	.
2G	.	2e	-ta-	2g	.	2b-y	.
=178	=178	=178	=178	=178	=178	=178	=178
2A	.	1c	.	2e	-gi-	2cc	.
1F	.	.	.	1f	-ni-	1a	.
.	.	2d	.	.	.	.	.
2G	.	2B-y	.	2d	.	2b-y	.
=179	=179	=179	=179	=179	=179	=179	=179
2E	.	2c	.	2e	-ta-	2g	.
2F	.	1A	.	2c	.	2a	.
2D	.	.	.	1d	.	2f	.
2G	.	2B-y	.	.	.	[2g	.
=180	=180	=180	=180	=180	=180	=180	=180
4E	.	2c	.	4G	.	4g]	.
4F	.	.	.	4A	.	4f	.
2D	.	2F	.	4B-y	.	1f	.
.	.	.	.	4A	.	.	.
1C	.	1G	.	1c	.	.	.
.	.	.	.	.	.	2e	.
=181	=181	=181	=181	=181	=181	=181	=181
00F	-tis.	00F	-tis.	00c	-tis.	00f	-tis.
=182||	=182||	=182||	=182||	=182||	=182||	=182||	=182||
*M2/1	*	*M2/1	*	*M2/1	*	*M2/1	*
*met(C|)	*	*met(C|)	*	*met(C|)	*	*met(C|)	*
!!section: Quarta pars: Ave, Domine Jesu Christe, Rex benedicte, splendor patris
!!!OMD: Quarta pars: Ave, Domine Jesu Christe, Rex benedicte, splentor patris
0ryy	.	0F	A-	0ryy	.	2.f	A-
.	.	.	.	.	.	4g	.
.	.	.	.	.	.	4a	.
.	.	.	.	.	.	4b-y	.
.	.	.	.	.	.	4cc	.
.	.	.	.	.	.	4a	.
=183	=183	=183	=183	=183	=183	=183	=183
0r	.	0G	.	2r	.	4b-y	.
.	.	.	.	.	.	4a	.
.	.	.	.	2.B-y	A-	4g	.
.	.	.	.	.	.	4f	.
.	.	.	.	.	.	1g	.
.	.	.	.	4A	.	.	.
.	.	.	.	4B-y	.	.	.
.	.	.	.	4c	.	.	.
=184	=184	=184	=184	=184	=184	=184	=184
0r	.	0B-y	-ve,	4d	.	2f	-ve,
.	.	.	.	4c	.	.	.
.	.	.	.	4d	.	4ff	.
.	.	.	.	4e	.	4ee	.
.	.	.	.	4f	.	4dd	.
.	.	.	.	4e	.	4cc	.
.	.	.	.	4f	.	2dd	.
.	.	.	.	4g	.	.	.
=185	=185	=185	=185	=185	=185	=185	=185
0r	.	0A	.	2a	.	4cc	.
.	.	.	.	.	.	4b-y	.
.	.	.	.	2f	.	4a	.
.	.	.	.	.	.	4g	.
.	.	.	.	1e	-ve,	2.a	.
.	.	.	.	.	.	8gL	.
.	.	.	.	.	.	8fJ	.
=186	=186	=186	=186	=186	=186	=186	=186
0C	A-	0G	.	2r	.	4e	.
.	.	.	.	.	.	4d	.
.	.	.	.	4c	a-	4e	.
.	.	.	.	4d	.	4f	.
.	.	.	.	4e	.	1g	.
.	.	.	.	4f	.	.	.
.	.	.	.	4g	.	.	.
.	.	.	.	4e	.	.	.
=187	=187	=187	=187	=187	=187	=187	=187
0D	.	0r	.	4f	.	2r	.
.	.	.	.	4e	.	.	.
.	.	.	.	4d	.	2.f	a-
.	.	.	.	4c	.	.	.
.	.	.	.	1d	.	.	.
.	.	.	.	.	.	4e	.
.	.	.	.	.	.	4f	.
.	.	.	.	.	.	4g	.
=188	=188	=188	=188	=188	=188	=188	=188
0F	-ve,	0r	.	4c	-ve,	4a	.
.	.	.	.	4B-y	.	4g	.
.	.	.	.	4A	.	4f	.
.	.	.	.	4G	.	4e	.
.	.	.	.	4A	.	1f	.
.	.	.	.	4B-y	.	.	.
.	.	.	.	4c	.	.	.
.	.	.	.	4d	.	.	.
=189	=189	=189	=189	=189	=189	=189	=189
0E	.	0r	.	4e	.	2g	-ve,
.	.	.	.	4d	.	.	.
.	.	.	.	4e	.	1gg	Do-
.	.	.	.	4f	.	.	.
.	.	.	.	2g	.	.	.
.	.	.	.	2c	Do-	2ee	.
=190	=190	=190	=190	=190	=190	=190	=190
0D	.	1A	Do-	2d	-mi-	4ff	.
.	.	.	.	.	.	4ee	.
.	.	.	.	1f	-ne	4dd	.
.	.	.	.	.	.	4cc	.
.	.	1B-y	-mi-	.	.	2dd	.
.	.	.	.	2f	Je-	2dd	-mi-
=191	=191	=191	=191	=191	=191	=191	=191
1E	Do-	0c	-ne	1e	-su	1g	-ne
1F	-mi-	.	.	1a	Chri-	2r	.
.	.	.	.	.	.	2cc	Je-
=192	=192	=192	=192	=192	=192	=192	=192
0G	-ne	1r	.	1d	-ste,	2b-y	-su
.	.	.	.	.	.	2.dd	Chri-
.	.	1B-y	Je-	1r	.	.	.
.	.	.	.	.	.	4cc	.
.	.	.	.	.	.	4b-y	.
.	.	.	.	.	.	4a	.
=193	=193	=193	=193	=193	=193	=193	=193
0r	.	1c	-su	1e	Je-	1g	.
.	.	1d	Chri-	1f	-su	1f	-ste,
=194	=194	=194	=194	=194	=194	=194	=194
1E	Je-	2G	-ste	1g	Chri-	1r	.
.	.	2g	.	.	.	.	.
1F	-su	2.f	.	1c	-ste,	1a	Je-
.	.	4e	.	.	.	.	.
=195	=195	=195	=195	=195	=195	=195	=195
1G	Chri-	4d	.	0r	.	1b-y	-su
.	.	4c	.	.	.	.	.
.	.	2d	.	.	.	.	.
2C	-ste,	1c	.	.	.	1cc	Chri-
2A	Je-	.	.	.	.	.	.
=196	=196	=196	=196	=196	=196	=196	=196
1B-y	-su	0r	.	1d	Rex	1f	-ste,
1c	Chri-	.	.	1e	be-	1r	.
=197	=197	=197	=197	=197	=197	=197	=197
1F	-ste,	0r	.	2.f	-ne-	1a	Je-
.	.	.	.	4e	.	.	.
1G	Rex	.	.	1d	-di-	1b-y	-su
=198	=198	=198	=198	=198	=198	=198	=198
1A	be-	1r	.	2c	-cte,	1cc	Chri-
.	.	.	.	2.f	.	.	.
2.B-y	-ne-	1d	Rex	.	.	1f	-ste,
.	.	.	.	4e	.	.	.
.	.	.	.	4d	.	.	.
4A	.	.	.	4c	.	.	.
=199	=199	=199	=199	=199	=199	=199	=199
1G	-di-	1e	be-	1B-y	.	1g	Rex
1F	-cte,	2.f	-ne-	2c	.	1a	be-
.	.	.	.	2d	.	.	.
.	.	4e	.	.	.	.	.
=200	=200	=200	=200	=200	=200	=200	=200
0r	.	2d	.	1B-y	.	2.b-y	-ne-
.	.	1f	-di-	.	.	.	.
.	.	.	.	.	.	4a	.
.	.	.	.	1c	.	1g	-di-
.	.	2e	.	.	.	.	.
=201	=201	=201	=201	=201	=201	=201	=201
0r	.	2d	.	1F	.	1f	-cte,
.	.	2c	.	.	.	.	.
.	.	2B-y	.	2r	.	1r	.
.	.	2A	.	2f	Splen-	.	.
=202	=202	=202	=202	=202	=202	=202	=202
0r	.	1G	.	1g	-dor	1b-y	Splen-
.	.	1F	-cte,	1a	Pa-	1cc	-dor
=203	=203	=203	=203	=203	=203	=203	=203
1r	.	0r	.	1g	-tris,	1dd	Pa-
1F	Splen-	.	.	2r	.	1cc	-tris,
.	.	.	.	2a	Pa-	.	.
=204	=204	=204	=204	=204	=204	=204	=204
1G	-dor	1B-y	Splen-	2d	.	2r	.
.	.	.	.	2g	.	2b-y	Pa-
1A	Pa-	1c	-dor	4e	-tris,	2a	.
.	.	.	.	4d	.	.	.
.	.	.	.	4e	.	[2cc	.
.	.	.	.	4f	.	.	.
=205	=205	=205	=205	=205	=205	=205	=205
1G	-tris,	1d	Pa-	1g	.	2cc]	.
.	.	.	.	.	.	2bnXi	.
1r	.	1c	-tris,	1r	.	1cc	-tris,
=206	=206	=206	=206	=206	=206	=206	=206
0r	.	0r	.	1f	Prin-	1r	.
.	.	.	.	1g	-ceps	1b-y	Prin-
=207	=207	=207	=207	=207	=207	=207	=207
0r	.	0r	.	1a	pa-	1cc	-ceps
.	.	.	.	1g	-cis,	1dd	pa-
=208	=208	=208	=208	=208	=208	=208	=208
1F	Prin-	1r	.	2r	.	1cc	-cis,
.	.	.	.	2a	pa-	.	.
1G	-ceps	1B-y	Prin-	2d	.	2r	.
.	.	.	.	2g	.	2b-y	pa-
=209	=209	=209	=209	=209	=209	=209	=209
1A	pa-	1c	-ceps	4e	-cis,	2a	.
.	.	.	.	4d	.	.	.
.	.	.	.	4e	.	1cc	.
.	.	.	.	4f	.	.	.
1G	-cis,	1d	pa-	1g	.	.	.
.	.	.	.	.	.	2bnXi	.
=210	=210	=210	=210	=210	=210	=210	=210
1r	.	0c	-cis,	2r	.	0cc	-cis,
.	.	.	.	1g	Ia-	.	.
2r	.	.	.	.	.	.	.
[2c	Ia-	.	.	2g	-nu-	.	.
=211	=211	=211	=211	=211	=211	=211	=211
2c]	.	0r	.	1e	-a	2r	.
2c	-nu-	.	.	.	.	1cc	Ia-
1A	-a	.	.	1e	cae-	.	.
.	.	.	.	.	.	2cc	-nu-
=212	=212	=212	=212	=212	=212	=212	=212
1A	cae-	2r	.	1c	-li,	1a	-a
.	.	1f	Ia-	.	.	.	.
1F	-li,	.	.	2r	.	1a	cae-
.	.	2f	-nu-	[2f	ia-	.	.
=213	=213	=213	=213	=213	=213	=213	=213
0B-y	Pa-	1d	-a	2f]	.	1f	-li,
.	.	.	.	2f	-nu-	.	.
.	.	1d	cae-	1d	-a	2r	.
.	.	.	.	.	.	[2b-y	Pa-
=214	=214	=214	=214	=214	=214	=214	=214
0G	-nis	1B-y	-li,	1d	cae-	2b-]	.
.	.	.	.	.	.	2g	-nis
.	.	1r	.	2.B-y	-li,	[1b-y	vi-
.	.	.	.	4c	.	.	.
=215	=215	=215	=215	=215	=215	=215	=215
0B-y	vi-	1f	Pa-	4d	.	1b-]	.
.	.	.	.	4c	.	.	.
.	.	.	.	4d	.	.	.
.	.	.	.	4e	.	.	.
.	.	1d	-nis	4f	.	1f	-vus,
.	.	.	.	4e	.	.	.
.	.	.	.	4f	.	.	.
.	.	.	.	4g	.	.	.
=216	=216	=216	=216	=216	=216	=216	=216
1F	-vus,	0f	vi-	2a	.	1cc	Pa-
.	.	.	.	1a	Pa-	.	.
1r	.	.	.	.	.	1a	-nis
.	.	.	.	2d	-nis	.	.
=217	=217	=217	=217	=217	=217	=217	=217
1c	Pa-	1c	-vus,	1e	vi-	0cc	vi-
1A	-nis	1r	.	1f	.	.	.
=218	=218	=218	=218	=218	=218	=218	=218
0c	vi-	1g	Pa-	1e	-vus,	0g	-vus,
.	.	1e	-nis	1r	.	.	.
=219	=219	=219	=219	=219	=219	=219	=219
[0G	-vus,	0g	vi-	1e	vi-	0r	.
.	.	.	.	1d	-vus,	.	.
=220	=220	=220	=220	=220	=220	=220	=220
1G]	.	1d	-vus,	2r	.	1g	Vir-
.	.	.	.	2g	Vir-	.	.
1r	.	1r	.	2f	-gi-	2a	-gi-
.	.	.	.	2d	.	2b-y	-nis
=221	=221	=221	=221	=221	=221	=221	=221
0r	.	1c	Vir-	2e	-nis	1cc	par-
.	.	.	.	2.a	par-	.	.
.	.	2d	-gi-	.	.	1b-y	.
.	.	.	.	4f	.	.	.
.	.	2e	-nis	2g	.	.	.
=222	=222	=222	=222	=222	=222	=222	=222
1F	Vir-	1f	par-	2c	.	1a	-tus,
.	.	.	.	1d	.	.	.
2G	-gi-	1e	.	.	.	2r	.
2A	-nis	.	.	2c	.	2cc	par-
=223	=223	=223	=223	=223	=223	=223	=223
1B-y	par-	2d	.	2.f	.	2b-y	.
.	.	2.f	.	.	.	2.dd	.
.	.	.	.	4g	.	.	.
1A	.	.	.	2a	.	.	.
.	.	4e	.	.	.	4cc	.
.	.	[2e	.	2e	.	[2cc	.
=224	=224	=224	=224	=224	=224	=224	=224
0G	-tus,	2e]	.	1g	-tus,	2cc]	.
.	.	4d	.	.	.	4bnXi	.
.	.	4c	.	.	.	4a	.
.	.	1d	.	1r	.	1bni	.
=225	=225	=225	=225	=225	=225	=225	=225
1r	.	[0c	-tus,	1g	Vas	[0cc	-tus,
1c	Vas	.	.	[1e	pu-	.	.
=226	=226	=226	=226	=226	=226	=226	=226
1A	pu-	1c]	.	2e]	.	1cc]	.
.	.	.	.	2f	-ri-	.	.
2B-y	-ri-	2r	.	1g	-ta-	1r	.
[2c	-ta-	2g	Vas	.	.	.	.
=227	=227	=227	=227	=227	=227	=227	=227
2c]	.	2e	pu-	2c	.	0r	.
4B-y	.	2f	-ri-	1f	.	.	.
4A	.	.	.	.	.	.	.
1G	.	1g	-ta-	.	.	.	.
.	.	.	.	2e	.	.	.
=228	=228	=228	=228	=228	=228	=228	=228
[0F	-tis,	[0c	-tis,	0f	-tis,	1r	.
.	.	.	.	.	.	1cc	Vas
=229	=229	=229	=229	=229	=229	=229	=229
1F]	.	1c]	.	2r	.	1a	pu-
.	.	.	.	2f	Vas	.	.
2r	.	1r	.	2d	pu-	2b-y	-ri-
2c	Vas	.	.	2e	-ri-	[2cc	-ta-
=230	=230	=230	=230	=230	=230	=230	=230
2A	pu-	1r	.	2c	-ta-	2cc]	.
2B-y	-ri-	.	.	1f	.	4b-y	.
.	.	.	.	.	.	4a	.
1c	-ta-	1c	Vas	.	.	1g	.
.	.	.	.	2e	.	.	.
=231	=231	=231	=231	=231	=231	=231	=231
1F	-tis,	1A	pu-	2f	.	2f	-tis,
.	.	.	.	2c	.	2f	Vas
2r	.	2B-y	-ri-	2d	.	2f	pu-
2C	Vas	[2c	-ta-	2G	.	2e	-ri-
=232	=232	=232	=232	=232	=232	=232	=232
2AA	pu-	2c]	.	2A	.	2c	-ta-
2BB-y	-ri-	4B-y	.	2d	.	1f	.
.	.	4A	.	.	.	.	.
1C	-ta-	1G	.	1c	.	.	.
.	.	.	.	.	.	2e	.
=233	=233	=233	=233	=233	=233	=233	=233
00F	-tis.	00F	-tis.	00c	-tis.	00f	-tis.
=234||	=234||	=234||	=234||	=234||	=234||	=234||	=234||
*M2/1	*	*M2/1	*	*M2/1	*	*M2/1	*
*met(C|)	*	*met(C|)	*	*met(C|)	*	*met(C|)	*
!!section: Quinta pars: Ave, Domine Jesu Christe, Rex benedicte, vita dulcis
!!!OMD: Quinta pars: Ave, Domine Jesu Christe, Rex benedicte, vita dulcis
0ryy	.	0ryy	.	1r	.	1f	A-
.	.	.	.	1c	A-	1cc	-ve,
=235	=235	=235	=235	=235	=235	=235	=235
0r	.	1r	.	1g	-ve,	1dd	.
.	.	1F	A-	1a	.	2r	.
.	.	.	.	.	.	2cc	Do-
=236	=236	=236	=236	=236	=236	=236	=236
1C	A-	1c	-ve,	2r	.	2g	-mi-
.	.	.	.	1g	Do-	1cc	.
1G	-ve,	1d	.	.	.	.	.
.	.	.	.	2g	-mi-	2bnXi	.
=237	=237	=237	=237	=237	=237	=237	=237
1A	.	[0c	Do-	1e	-ne,	1cc	-ne,
1r	.	.	.	2r	.	2r	.
.	.	.	.	[2e	Do-	2cc	Do-
=238	=238	=238	=238	=238	=238	=238	=238
0r	.	1c]	.	2e]	.	2g	-mi-
.	.	.	.	4d	.	1cc	.
.	.	.	.	4c	.	.	.
.	.	1G	-mi-	2d	.	.	.
.	.	.	.	2d	-mi-	2b-y	.
=239	=239	=239	=239	=239	=239	=239	=239
0F	Do-	0c	-ne	2c	-ne,	2.cc	.
.	.	.	.	2f	Do-	.	.
.	.	.	.	.	.	4b-y	.
.	.	.	.	2c	.	2a	.
.	.	.	.	[2f	.	2f	.
=240	=240	=240	=240	=240	=240	=240	=240
1C	-mi-	1r	.	2f]	.	1g	-ne,
.	.	.	.	2e	.	.	.
[1F	-ne	[1f	Do-	2f	.	2f	.
.	.	.	.	[2a	.	2ff	Do-
=241	=241	=241	=241	=241	=241	=241	=241
1F]	.	1f]	.	2a]	.	2cc	.
.	.	.	.	4g	.	1ff	.
.	.	.	.	4f	.	.	.
1r	.	1c	-mi-	1g	-mi-	.	.
.	.	.	.	.	.	2ee	-mi-
=242	=242	=242	=242	=242	=242	=242	=242
0r	.	0f	-ne	2f	-ne	2ff	-ne
.	.	.	.	1B-y	.	1dd	.
.	.	.	.	2A	.	2cc	.
=243	=243	=243	=243	=243	=243	=243	=243
1G	Je-	0d	Je-	2B-y	.	1.dd	.
.	.	.	.	4B-y	.	.	.
.	.	.	.	4c	.	.	.
1B-y	-su	.	.	4d	.	.	.
.	.	.	.	4e	.	.	.
.	.	.	.	[2f	.	4cc	.
.	.	.	.	.	.	4b-y	.
=244	=244	=244	=244	=244	=244	=244	=244
1F	Chri-	0f	-su	2f]	.	1a	.
.	.	.	.	2c	Je-	.	.
1D	-ste,	.	.	2d	-su	1a	Je-
.	.	.	.	2f	Chri-	.	.
=245	=245	=245	=245	=245	=245	=245	=245
2.A	.	[0c	Chri-	0e	-ste,	1cc	-su
4B-y	.	.	.	.	.	.	.
2c	.	.	.	.	.	1g	Chri-
2C	.	.	.	.	.	.	.
=246	=246	=246	=246	=246	=246	=246	=246
2r	.	0c]	.	1r	.	0e	-ste,
2.C	Rex	.	.	.	.	.	.
.	.	.	.	1g	Rex	.	.
4D	.	.	.	.	.	.	.
2E	.	.	.	.	.	.	.
=247	=247	=247	=247	=247	=247	=247	=247
4F	be-	0A	-ste,	1c	be-	1r	.
4G	.	.	.	.	.	.	.
4A	.	.	.	.	.	.	.
4B-y	.	.	.	.	.	.	.
2c	.	.	.	1e	-ne-	1cc	Rex
2A	-ne-	.	.	.	.	.	.
=248	=248	=248	=248	=248	=248	=248	=248
2.B-y	-di-	0r	.	1d	.	1f	be-
8AL	.	.	.	.	.	.	.
8GJ	.	.	.	.	.	.	.
2F	.	.	.	1d	-di-	1a	-ne-
2D	.	.	.	.	.	.	.
=249	=249	=249	=249	=249	=249	=249	=249
2.E	.	1r	.	1g	.	1g	.
4C	.	.	.	.	.	.	.
1C	-cte,	1c	Rex	1e	-cte,	1g	-di-
=250	=250	=250	=250	=250	=250	=250	=250
0r	.	1F	be-	1a	.	1cc	.
.	.	1A	-ne-	2r	.	1cc	-cte
.	.	.	.	2a	be-	.	.
=251	=251	=251	=251	=251	=251	=251	=251
1r	.	1G	.	2d	-ne-	1.dd	.
.	.	.	.	2.g	-di-	.	.
1G	Rex	1G	-di-	.	.	.	.
.	.	.	.	4f	.	.	.
.	.	.	.	2d	.	2b-y	.
=252	=252	=252	=252	=252	=252	=252	=252
1C	be-	1c	.	2e	.	2cc	.
.	.	.	.	2.c	.	2a	.
1E	-ne-	1c	-cte,	.	.	1g	.
.	.	.	.	4B-y	.	.	.
.	.	.	.	2G	.	.	.
=253	=253	=253	=253	=253	=253	=253	=253
1D	.	1d	.	2A	.	2f	.
.	.	.	.	1a	.	2.ff	.
1D	-di-	1r	.	.	.	.	.
.	.	.	.	.	.	4ee	.
.	.	.	.	2f	.	4dd	.
.	.	.	.	.	.	4cc	.
=254	=254	=254	=254	=254	=254	=254	=254
1G	.	0r	.	2g	.	2b-y	.
.	.	.	.	2e	.	1cc	.
1G	-cte,	.	.	1d	.	.	.
.	.	.	.	.	.	2bnXi	.
=255	=255	=255	=255	=255	=255	=255	=255
1A	.	1r	.	1c	-cte,	1cc	.
1r	.	1c	Vi-	1r	.	2r	.
.	.	.	.	.	.	2cc	Vi-
=256	=256	=256	=256	=256	=256	=256	=256
0r	.	1B-y	.	1r	.	2dd	.
.	.	.	.	.	.	2ff	.
.	.	1c	.	1g	Vi-	1ee	.
=257	=257	=257	=257	=257	=257	=257	=257
1r	.	1F	-ta	1f	.	1a	-ta,
1G	Vi-	1r	.	1g	.	1r	.
=258	=258	=258	=258	=258	=258	=258	=258
1F	.	0r	.	2c	-ta	1cc	Vi-
.	.	.	.	4f	.	.	.
.	.	.	.	4e	.	.	.
1G	.	.	.	4d	.	1b-y	.
.	.	.	.	4c	.	.	.
.	.	.	.	2d	.	.	.
=259	=259	=259	=259	=259	=259	=259	=259
1C	-ta	1c	dul-	1e	.	1cc	.
1r	.	1B-y	-cis	1r	.	1f	-ta
=260	=260	=260	=260	=260	=260	=260	=260
0r	.	1c	.	1g	dul-	0r	.
.	.	[1d	.	1f	-cis,	.	.
=261	=261	=261	=261	=261	=261	=261	=261
1G	dul-	1d]	.	1g	.	1r	.
1F	-cis	1r	.	1a	.	1cc	dul-
=262	=262	=262	=262	=262	=262	=262	=262
1G	.	1r	.	2r	.	1b-y	-cis
.	.	.	.	2g	dul-	.	.
1A	.	1c	dul-	2e	-cis,	1cc	.
.	.	.	.	2f	.	.	.
=263	=263	=263	=263	=263	=263	=263	=263
1r	.	1B-y	-cis	2d	.	1dd	.
.	.	.	.	2g	dul-	.	.
2r	.	1c	.	2e	-cis	2r	.
[2F	Ve-	.	.	[2a	.	[2cc	Ve-
=264	=264	=264	=264	=264	=264	=264	=264
2F]	.	1d	.	2a]	.	2cc]	.
2G	-ri-	.	.	4g	.	2b-y	-ri-
.	.	.	.	4f	.	.	.
1A	-tas	2r	.	1e	.	[1cc	-tas,
.	.	[2c	Ve-	.	.	.	.
=265	=265	=265	=265	=265	=265	=265	=265
2r	.	2c]	.	2A	Ve-	2cc]	.
2G	per-	2d	-ri-	2B-y	-ri-	4b-y	.
.	.	.	.	.	.	4a	.
4C	-fe-	1e	-tas	1c	-tas	1g	.
4D	.	.	.	.	.	.	.
4E	.	.	.	.	.	.	.
4F	.	.	.	.	.	.	.
=266	=266	=266	=266	=266	=266	=266	=266
2G	.	2d	per-	2r	.	2r	.
2E	.	1c	-fe-	2G	per-	1cc	Ve-
2F	.	.	.	2A	-fe-	.	.
2D	.	2BnXi	.	2F	.	2dd	-ri-
=267	=267	=267	=267	=267	=267	=267	=267
1C	-cta,	1c	-cta,	2G	.	1ee	-tas
.	.	.	.	1g	.	.	.
1r	.	1r	.	.	.	2dd	per-
.	.	.	.	2e	.	[2cc	-fe-
=268	=268	=268	=268	=268	=268	=268	=268
1r	.	0r	.	2f	.	2cc]	.
.	.	.	.	2d	.	2bnXi	.
1F	Prae-	.	.	1c	-cta,	[1cc	-cta,
=269	=269	=269	=269	=269	=269	=269	=269
1E	-mi-	1c	Prae-	0r	.	1cc]	.
1D	-um	1B-y	-mi-	.	.	1r	.
=270	=270	=270	=270	=270	=270	=270	=270
1F	no-	1A	-um	1f	Prae-	1r	.
1C	-strum,	1c	no-	1e	-mi-	1cc	Prae-
=271	=271	=271	=271	=271	=271	=271	=271
0r	.	1G	-strum,	1d	-um	1b-y	-mi-
.	.	1r	.	1f	no-	1a	-um
=272	=272	=272	=272	=272	=272	=272	=272
1r	.	0r	.	2c	-strum,	1cc	no-
.	.	.	.	2f	Prae-	.	.
1C	Ca-	.	.	1e	-mi-	2g	-strum,
.	.	.	.	.	.	2cc	Prae-
=273	=273	=273	=273	=273	=273	=273	=273
1D	-ri-	0r	.	2d	-um	2b-y	-mi-
.	.	.	.	2f	no-	1a	-um
1F	-tas	.	.	1c	-strum,	.	.
.	.	.	.	.	.	[2a	no-
=274	=274	=274	=274	=274	=274	=274	=274
1F	sum-	1F	Ca-	1r	.	2a]	.
.	.	.	.	.	.	4g	.
.	.	.	.	.	.	4f	.
1C	-ma,	1G	-ri-	1c	Ca-	1e	.
=275	=275	=275	=275	=275	=275	=275	=275
0r	.	1B-y	-tas	1d	-ri-	2d	-strum,
.	.	.	.	.	.	1dd	Prae-
.	.	1B-y	sum-	1f	-tas	.	.
.	.	.	.	.	.	4cc	.
.	.	.	.	.	.	4b-y	.
=276	=276	=276	=276	=276	=276	=276	=276
1r	.	1F	-ma,	1f	sum-	4a	.
.	.	.	.	.	.	4g	.
.	.	.	.	.	.	4a	.
.	.	.	.	.	.	4b-y	.
1F	Ca-	2r	.	1c	-ma,	2cc	.
.	.	2f	Ca-	.	.	2a	-mi-
=277	=277	=277	=277	=277	=277	=277	=277
1G	-ri-	2d	-ri-	1r	.	4b-y	-um
.	.	.	.	.	.	4a	.
.	.	1g	-tas	.	.	4b-y	.
.	.	.	.	.	.	4cc	.
1B-y	-tas	.	.	2r	.	2dd	.
.	.	[2f	sum-	2d	Ca-	[2dd	no-
=278	=278	=278	=278	=278	=278	=278	=278
1B-y	sum-	4f]	.	2d	-ri-	4dd]	.
.	.	4e	.	.	.	4cc	.
.	.	2d	.	2f	-tas	1b-y	.
1F	-ma,	1c	.	1f	sum-	.	.
.	.	.	.	.	.	2a	.
=279	=279	=279	=279	=279	=279	=279	=279
0r	.	1B-y	-ma,	0d	-ma,	1b-y	-strum,
.	.	1r	.	.	.	1r	.
=280	=280	=280	=280	=280	=280	=280	=280
0r	.	1c	Fons	1r	.	1g	Fons
.	.	2G	a-	1d	Fons	1b-y	a-
.	.	[2B-y	-mo-	.	.	.	.
=281	=281	=281	=281	=281	=281	=281	=281
0r	.	4B-]	.	1f	a-	1b-y	-mo-
.	.	4A	.	.	.	.	.
.	.	2B-y	.	.	.	.	.
.	.	1F	-ris,	1f	-mo-	1a	.
=282	=282	=282	=282	=282	=282	=282	=282
1G	Fons	1r	.	1e	.	1g	-ris,
1B-y	a-	1d	Fons	[1d	.	1f	.
=283	=283	=283	=283	=283	=283	=283	=283
1B-y	-mo-	1f	a-	1d]	.	0r	.
1A	.	1f	-mo-	1c	-ris,	.	.
=284	=284	=284	=284	=284	=284	=284	=284
[0G	-ris,	1e	.	2r	.	1g	Fons
.	.	.	.	1g	Fons	.	.
.	.	[1d	-ris,	.	.	1b-y	a-
.	.	.	.	2g	a-	.	.
=285	=285	=285	=285	=285	=285	=285	=285
0G]	.	0d_	.	2g	-mo-	0b-y	-mo-
.	.	.	.	4G	-ris,	.	.
.	.	.	.	4A	.	.	.
.	.	.	.	4B-y	.	.	.
.	.	.	.	4c	.	.	.
.	.	.	.	4d	.	.	.
.	.	.	.	4e	.	.	.
=286	=286	=286	=286	=286	=286	=286	=286
0F	.	1d]	.	1f	.	0a	.
.	.	[1c	.	2r	.	.	.
.	.	.	.	[2f	Dul-	.	.
=287	=287	=287	=287	=287	=287	=287	=287
0r	.	1c]	.	2f]	.	1g	-ris,
.	.	.	.	2e	.	.	.
.	.	1r	.	2f	.	1f	.
.	.	.	.	[2d	.	.	.
=288	=288	=288	=288	=288	=288	=288	=288
0r	.	1r	.	2d]	.	2r	.
.	.	.	.	2c	.	1a	Dul-
.	.	2r	.	1B-y	-ce-	.	.
.	.	[2d	Dul-	.	.	2g	.
=289	=289	=289	=289	=289	=289	=289	=289
2r	.	2d]	.	1A	-do	1f	-ce-
1A	Dul-	1c	-ce-	.	.	.	.
.	.	.	.	1r	.	1e	.
2G	.	2B-y	.	.	.	.	.
=290	=290	=290	=290	=290	=290	=290	=290
1F	-ce-	0c	-do,	2r	.	1f	-do,
.	.	.	.	1a	Dul-	.	.
1E	.	.	.	.	.	1r	.
.	.	.	.	2g	.	.	.
=291	=291	=291	=291	=291	=291	=291	=291
1F	.	2r	.	1f	-ce-	2r	.
.	.	1c	Dul-	.	.	1a	Dul-
1G	.	.	.	1e	.	.	.
.	.	2B-y	.	.	.	2g	.
=292	=292	=292	=292	=292	=292	=292	=292
1F	-do	2c	-ce-	1f	.	4a	-ce-
.	.	.	.	.	.	4b-y	.
.	.	1A	.	.	.	4cc	.
.	.	.	.	.	.	4dd	.
1E	.	.	.	1g	.	1ee	.
.	.	2G	.	.	.	.	.
=293	=293	=293	=293	=293	=293	=293	=293
1D	.	2A	.	1f	-do	1ff	-do,
.	.	2B-y	.	.	.	.	.
1C	.	1c	.	1e	.	1r	.
=294	=294	=294	=294	=294	=294	=294	=294
1D	.	2F	.	1d	.	2r	.
.	.	1f	.	.	.	2f	Dul-
1r	.	.	.	1c	.	1g	-ce-
.	.	2e	.	.	.	.	.
=295	=295	=295	=295	=295	=295	=295	=295
1B-y	et	0f	-do	1d	.	1f	-do
1F	Pax,	.	.	2r	.	1ff	et
.	.	.	.	2a	et	.	.
=296	=296	=296	=296	=296	=296	=296	=296
1r	.	1f	et	1.a	Pax	1cc	Pax,
1F	et	1c	Pax,	.	.	1r	.
.	.	.	.	4g	.	.	.
.	.	.	.	4f	.	.	.
=297	=297	=297	=297	=297	=297	=297	=297
1C	Pax,	1r	.	2e	.	1cc	et
.	.	.	.	2e	du-	.	.
1r	.	1c	et	2e	-ra-	1g	Pax
.	.	.	.	4d	.	.	.
.	.	.	.	4c	.	.	.
=298	=298	=298	=298	=298	=298	=298	=298
0r	.	1G	Pax,	2d	.	1b-y	du-
.	.	.	.	2d	-bi-	.	.
.	.	1r	.	[1c	-lis,	[1cc	-ra-
=299	=299	=299	=299	=299	=299	=299	=299
1r	.	0r	.	1c]	.	2cc]	.
.	.	.	.	.	.	2cc	-bi-
1c	et	.	.	1e	et	1cc	-lis,
=300	=300	=300	=300	=300	=300	=300	=300
1G	Pax	1g	et	1d	Pax	0r	.
1B-y	du-	2d	Pax	2r	.	.	.
.	.	2d	du-	2g	du-	.	.
=301	=301	=301	=301	=301	=301	=301	=301
1.c	-ra-	1.e	-ra-	2g	-ra-	1r	.
.	.	.	.	2g	-bi-	.	.
.	.	.	.	1g	-lis,	1cc	et
2c	-bi-	2e	-bi-	.	.	.	.
=302	=302	=302	=302	=302	=302	=302	=302
1c	-lis,	1e	-lis,	2r	.	1g	Pax
.	.	.	.	2c	du-	.	.
1r	.	1r	.	2d	-ra-	1b-y	du-
.	.	.	.	2d	-bi-	.	.
=303	=303	=303	=303	=303	=303	=303	=303
0r	.	2r	.	2c	-lis,	1.cc	-ra-
.	.	2c	du-	2g	du-	.	.
.	.	2f	-ra-	2a	-ra-	.	.
.	.	2f	-bi-	2a	-bi-	2cc	-bi-
=304	=304	=304	=304	=304	=304	=304	=304
0c	Re-	1e	-lis,	1g	-lis,	1cc	-lis,
.	.	1r	.	2r	.	1ee	Re-
.	.	.	.	2g	Re-	.	.
=305	=305	=305	=305	=305	=305	=305	=305
0d	.	0f	Re-	2f	.	2dd	.
.	.	.	.	1a	.	1cc	.
.	.	.	.	4g	.	2bnXi	-qui-
.	.	.	.	4f	.	.	.
=306	=306	=306	=306	=306	=306	=306	=306
1c	-qui-	0g	.	2e	.	0cc	-es
.	.	.	.	1f	.	.	.
1c	-es	.	.	.	.	.	.
.	.	.	.	2e	-qui-	.	.
=307	=307	=307	=307	=307	=307	=307	=307
1r	.	1f	-qui-	1f	-es	2.cc	no-
.	.	.	.	.	.	4b-y	.
1F	no-	1f	-es	2c	.	4a	.
.	.	.	.	.	.	4g	.
.	.	.	.	[2d	no-	[2f	.
=308	=308	=308	=308	=308	=308	=308	=308
1G	-stra,	1B-y	no-	4d]	.	2f]	.
.	.	.	.	4c	.	.	.
.	.	.	.	1B-y	.	2e	.
1F	.	1c	-stra,	.	.	1f	-stra,
.	.	.	.	2A	.	.	.
=309	=309	=309	=309	=309	=309	=309	=309
1G	.	1B-y	.	1B-y	-stra,	0r	.
1A	.	1c	.	1r	.	.	.
=310	=310	=310	=310	=310	=310	=310	=310
0r	.	1d	.	1f	no-	1r	.
.	.	1r	.	1g	-stra,	1b-y	no-
=311	=311	=311	=311	=311	=311	=311	=311
0r	.	0r	.	1f	.	1cc	-stra,
.	.	.	.	1g	.	1b-y	.
=312	=312	=312	=312	=312	=312	=312	=312
1A	Vi-	1r	.	1a	.	1cc	.
1G	-ta	1d	Vi-	1r	.	1dd	.
=313	=313	=313	=313	=313	=313	=313	=313
2r	.	1c	-ta	1e	Vi-	2r	.
2A	per-	.	.	.	.	1a	Vi-
1B-y	-en-	1r	.	1d	-ta	.	.
.	.	.	.	.	.	2g	-ta
=314	=314	=314	=314	=314	=314	=314	=314
1A	.	2r	.	1r	.	2r	.
.	.	2e	per-	.	.	2a	per-
1G	-nis:	1g	-en-	2r	.	1b-y	-en-
.	.	.	.	2e	per-	.	.
=315	=315	=315	=315	=315	=315	=315	=315
1F	.	0c	-nis:	1f	-en-	1a	.
1r	.	.	.	1e	.	2g	.
.	.	.	.	.	.	[2cc	.
=316	=316	=316	=316	=316	=316	=316	=316
0r	.	0ryy	.	1d	-nis:	2cc]	.
.	.	.	.	.	.	2bnXi	.
.	.	.	.	1c	.	1cc	-nis:
=317	=317	=317	=317	=317	=317	=317	=317
*M3/1	*	*M3/1	*	*M3/1	*	*M3/1	*
*met(3)	*	*met(3)	*	*met(3)	*	*met(3)	*
0F	mi-	1c	mi-	0A	mi-	0.r	.
.	.	0d	-se-	.	.	.	.
[1G	-se-	.	.	[1B-y	-se-	.	.
=318	=318	=318	=318	=318	=318	=318	=318
1G]	.	0e	-re-	1B-]	.	0.r	.
0A	-re-	.	.	0c	-re-	.	.
.	.	[1c	-re	.	.	.	.
=319	=319	=319	=319	=319	=319	=319	=319
0F	-re	1c]	.	0A	-re	0.r	.
.	.	0d	no-	.	.	.	.
1G	no-	.	.	1B-y	no-	.	.
=320	=320	=320	=320	=320	=320	=320	=320
1E	.	0c	.	1.G	.	1cc	mi-
0D	.	.	.	.	.	0dd	-se-
.	.	.	.	2F	.	.	.
.	.	1B-y	.	1F	.	.	.
=321	=321	=321	=321	=321	=321	=321	=321
0.C	-bis,	0.c	-bis,	1G	-bis,	0ee	-re-
.	.	.	.	1g	mi-	.	.
.	.	.	.	1e	-se-	[1cc	-re
=322	=322	=322	=322	=322	=322	=322	=322
0.r	.	0.r	.	1a	-re-	1cc]	.
.	.	.	.	1f	.	0dd	no-
.	.	.	.	1g	-re	.	.
=323	=323	=323	=323	=323	=323	=323	=323
1F	mi-	1c	mi-	0a	no-	0cc	.
1F	-se-	0d	-se-	.	.	.	.
1G	-re-	.	.	1g	.	1bnXi	.
=324	=324	=324	=324	=324	=324	=324	=324
1C	-re	0e	-re-	0g	-bis,	0.cc	-bis,
1c	no-	.	.	.	.	.	.
1A	.	[1c	-re	1r	.	.	.
=325	=325	=325	=325	=325	=325	=325	=325
1F	.	1c]	.	1a	no-	0.r	.
0B-y	.	0d	no-	1f	.	.	.
.	.	.	.	2.g	.	.	.
.	.	.	.	4f	.	.	.
=326	=326	=326	=326	=326	=326	=326	=326
1A	.	0c	.	0f	.	1f	mi-
0G	.	.	.	.	.	0g	-se-
.	.	1B-y	.	1e	.	.	.
=327	=327	=327	=327	=327	=327	=327	=327
0F	-bis,	1c	-bis,	1f	.	0a	-re-
.	.	1A	mi-	1c	.	.	.
1D	mi-	1A	-se-	1d	-bis,	[1f	-re
=328	=328	=328	=328	=328	=328	=328	=328
1D	-se-	1d	-re-	2r	.	1f]	.
.	.	.	.	1d	mi-	.	.
1G	-re-	1B-y	-re	.	.	0g	no-
.	.	.	.	2d	-se-	.	.
1E	.	1c	no-	1e	-re-	.	.
=329	=329	=329	=329	=329	=329	=329	=329
1F	-re	1A	.	1c	-re	0f	.
0C	no-	0G	.	0c	no-	.	.
.	.	.	.	.	.	1e	.
=330	=330	=330	=330	=330	=330	=330	=330
*M2/1	*	*M2/1	*	*M2/1	*	*	*
*met(C|)	*	*met(C|)	*	*met(C|)	*	*	*
0BB-y	-bis,	1d	-bis,	1F	-bis,	[0fl	-bis.
.	.	2r	.	2r	.	.	.
.	.	[2d	no-	[2B-y	no-	.	.
=331	=331	=331	=331	=331	=331	=331	=331
1r	.	4d]	.	4B-]	.	0f_	.
.	.	4c	.	4A	.	.	.
.	.	4B-y	.	4B-y	.	.	.
.	.	4A	.	4c	.	.	.
1BB-y	no-	1B-y	.	1d	.	.	.
=332	=332	=332	=332	=332	=332	=332	=332
00Fl	-bis.	00Al	-bis.	00cl	-bis.	00f]	.
==	==	==	==	==	==	==	==
*-	*-	*-	*-	*-	*-	*-	*-
!!!system-decoration: [*]
!!!RDF**kern: i = editorial accidental
!!!RDF**kern: l = terminal long
!!!PTL: <i> New Senfl Edition: Motets for Four Voices (A-I) </i>
!!!PPR: Hollitzer Verlag
!!!PC#: Denkmäler der Tonkunst in Österreich 163.1
!!!PDT: 2021
!!!PED: Scott Lee Edwards, Stefan Gasch, and Sonja Tröster
!!!YEC: Copyright 2021 Denkmäler der Tonkunst in Österreich
!!!YEM: CC-BY-NC 4.0 (https://creativecommons.org/licenses/by-nc/4.0/legalcode)
!!!EED: Benjamin Ory
!!!EEV: 2024/11/28
!!!verovio: header encoded
!!!header-left: @{PTL}\n@{PED}, eds.\n@{PC#} (@{PDT})&nbsp;\n
!!!header-right:
!!!header-center: